X:177
T: Die Mordeltern
N: Q0085S
O: Mitteleuropa, Deutschland / Frankreich, Lothringen
R: Ballade, Habgier, Mord, Reue, Selbstmord
M: 3/4
L: 1/16
K: G
D2D2G2 | G4B4F2G2 | A6
D2D2F2 | A4c2c2B3c | d3
dd2B2c2e2 | d4A4
d4 | c2B2c4d4 | e8d4 | G6

@@@ Tune index: 1232
